X: 27196
T: Miss Nancy Fowler
R: jig
M: 6/8
K: Gmajor
|:D2E G2A|B2d e2d|c2B ABc|c2B ABc|
D2E G2A|B2d e2d|cdc BAG|ABG FED:|
|:dBG G3|dBG G3|e3 d3|c2B ABc|
ded B3|ABc B3|DEG dBG|ABG FED:|

